paymentMethods/discover.svg

<svg width="128" height="64" viewBox="0 0 128 64" fill="none" xmlns="http://www.w3.org/2000/svg">
<rect width="128" height="64" rx="6" fill="white"/>
<path fill-rule="evenodd" clip-rule="evenodd" d="M128 36.34V58C128 61.3137 125.314 64 122 64H11.9297C43.6739 61.7743 98.5775 54.055 128 36.34Z" fill="url(#paint0_linear_5_11510)"/>
<path d="M21.0836 36.0593C20.1181 36.9283 18.8667 37.3106 16.8854 37.3106H16.0627V26.9174H16.8854C18.8667 26.9174 20.0679 27.2688 21.0836 28.188C22.1419 29.1304 22.7791 30.5942 22.7791 32.1005C22.7791 33.6067 22.1419 35.1169 21.0836 36.0593ZM17.4995 24.2524H13V39.9717H17.4763C19.8554 39.9717 21.578 39.4117 23.0843 38.1564C24.8763 36.6733 25.9384 34.4371 25.9384 32.1236C25.9384 27.4851 22.474 24.2524 17.4995 24.2524Z" fill="#231C1D"/>
<path d="M27.3481 39.9717H30.4147V24.2524H27.3481V39.9717Z" fill="#231C1D"/>
<path d="M37.9113 30.2852C36.0691 29.6055 35.5322 29.1536 35.5322 28.3039C35.5322 27.3152 36.4939 26.562 37.8148 26.562C38.734 26.562 39.4871 26.9405 40.2866 27.8366L41.8933 25.7355C40.5724 24.5846 38.9966 23.9937 37.2741 23.9937C34.4933 23.9937 32.3691 25.9248 32.3691 28.497C32.3691 30.6637 33.3578 31.7722 36.239 32.8072C37.4363 33.2321 38.0465 33.514 38.3555 33.7033C38.9696 34.1011 39.2747 34.6688 39.2747 35.3293C39.2747 36.5999 38.2628 37.5462 36.8956 37.5462C35.4357 37.5462 34.2538 36.8162 33.5509 35.449L31.5696 37.3569C32.9793 39.431 34.6787 40.3463 37.0115 40.3463C40.1978 40.3463 42.4301 38.2298 42.4301 35.1864C42.4301 32.6914 41.3989 31.5597 37.9113 30.2852Z" fill="#231C1D"/>
<path d="M43.3996 32.1236C43.3996 36.7428 47.0262 40.3231 51.6956 40.3231C53.0126 40.3231 54.1443 40.0643 55.5385 39.4116V35.8004C54.3103 37.0247 53.2251 37.523 51.8347 37.523C48.7487 37.523 46.5589 35.2829 46.5589 32.1004C46.5589 29.084 48.8183 26.701 51.6956 26.701C53.1555 26.701 54.264 27.2224 55.5385 28.4699V24.8626C54.1906 24.1828 53.086 23.897 51.7651 23.897C47.1227 23.897 43.3996 27.5546 43.3996 32.1236Z" fill="#231C1D"/>
<path d="M79.8473 34.8079L75.653 24.2524H72.3044L78.9745 40.3734H80.6236L87.4134 24.2524H84.0919L79.8473 34.8079Z" fill="#231C1D"/>
<path d="M88.8 39.9717H97.4938V37.3106H91.8627V33.066H97.2853V30.405H91.8627V26.9174H97.4938V24.2524H88.8V39.9717Z" fill="#231C1D"/>
<path d="M103.484 31.4902H102.588V26.7281H103.53C105.442 26.7281 106.481 27.5276 106.481 29.057C106.481 30.6406 105.442 31.4902 103.484 31.4902ZM109.633 28.891C109.633 25.9518 107.605 24.2524 104.071 24.2524H99.5253V39.9717H102.588V33.657H102.99L107.23 39.9717H111L106.052 33.348C108.362 32.8806 109.633 31.301 109.633 28.891Z" fill="#231C1D"/>
<circle cx="64.746" cy="32" r="8.52779" fill="url(#paint1_linear_5_11510)"/>
<defs>
<linearGradient id="paint0_linear_5_11510" x1="4.07702e-06" y1="5.41991e-06" x2="123.443" y2="71.8307" gradientUnits="userSpaceOnUse">
<stop stop-color="#E14220"/>
<stop offset="1" stop-color="#F79514"/>
</linearGradient>
<linearGradient id="paint1_linear_5_11510" x1="59.1844" y1="25.6969" x2="70.6784" y2="37.9324" gradientUnits="userSpaceOnUse">
<stop stop-color="#DF2124"/>
<stop offset="1" stop-color="#F58112"/>
</linearGradient>
</defs>
</svg>

<svg xmlns="http://www.w3.org/2000/svg" width="128" height="64" fill="none"><rect width="128" height="64" fill="#fff" rx="6"/><path fill="url(#a)" fill-rule="evenodd" d="M128 36.34V58a6 6 0 0 1-6 6H11.93C43.674 61.774 98.578 54.055 128 36.34Z" clip-rule="evenodd"/><path fill="#231C1D" d="M21.084 36.06c-.966.868-2.217 1.25-4.199 1.25h-.822V26.918h.822c1.982 0 3.183.352 4.199 1.271 1.058.942 1.695 2.406 1.695 3.912 0 1.507-.637 3.017-1.695 3.96ZM17.5 24.251H13v15.72h4.476c2.38 0 4.102-.56 5.608-1.816a7.888 7.888 0 0 0 2.854-6.032c0-4.639-3.464-7.872-8.438-7.872ZM27.348 39.972h3.067v-15.72h-3.067v15.72ZM37.911 30.285c-1.842-.68-2.379-1.131-2.379-1.981 0-.989.962-1.742 2.283-1.742.919 0 1.672.378 2.472 1.275l1.606-2.102c-1.32-1.15-2.896-1.741-4.619-1.741-2.78 0-4.905 1.93-4.905 4.503 0 2.167.989 3.275 3.87 4.31 1.197.425 1.808.707 2.117.896.614.398.919.966.919 1.626 0 1.27-1.012 2.217-2.38 2.217-1.46 0-2.641-.73-3.344-2.097l-1.981 1.908c1.41 2.074 3.109 2.99 5.441 2.99 3.187 0 5.42-2.117 5.42-5.16 0-2.496-1.032-3.627-4.52-4.902ZM43.4 32.124c0 4.619 3.626 8.2 8.296 8.2 1.317 0 2.448-.26 3.843-.912V35.8c-1.229 1.225-2.314 1.723-3.704 1.723-3.086 0-5.276-2.24-5.276-5.423 0-3.016 2.26-5.399 5.137-5.399 1.46 0 2.568.521 3.843 1.769v-3.607c-1.348-.68-2.453-.966-3.774-.966-4.642 0-8.365 3.658-8.365 8.227ZM79.847 34.808l-4.194-10.556h-3.349l6.67 16.121h1.65l6.79-16.12h-3.322l-4.245 10.555ZM88.8 39.972h8.694V37.31h-5.631v-4.245h5.422v-2.661h-5.422v-3.488h5.63v-2.665H88.8v15.72ZM103.484 31.49h-.896v-4.762h.942c1.912 0 2.951.8 2.951 2.329 0 1.584-1.039 2.433-2.997 2.433Zm6.149-2.599c0-2.94-2.028-4.639-5.562-4.639h-4.546v15.72h3.063v-6.315h.402l4.24 6.315H111l-4.948-6.624c2.31-.467 3.581-2.047 3.581-4.457Z"/><circle cx="64.746" cy="32" r="8.528" fill="url(#b)"/><defs><linearGradient id="a" x1="0" x2="123.443" y1="0" y2="71.831" gradientUnits="userSpaceOnUse"><stop stop-color="#E14220"/><stop offset="1" stop-color="#F79514"/></linearGradient><linearGradient id="b" x1="59.184" x2="70.678" y1="25.697" y2="37.932" gradientUnits="userSpaceOnUse"><stop stop-color="#DF2124"/><stop offset="1" stop-color="#F58112"/></linearGradient></defs></svg>
